X:62
T:Garden Well, Glen Callater
C:R. Petrie
S:Petrie's Second Collection of Strathspey Reels and Country Dances &c.
Z:Steve Wyrick , 6/11/04
N:Petrie's Second Collection, page 22
L:1/8
M:6/8
R:Jig
K:G
B/c/| dBG GBd| gag gdB|dBG GBG|AFD D2 B/c/| dBG GBd| gag gdB|cBc Adc|BGG G2:|
d   |Tgfg cBG|Tgfg dBG|cac BgB|aAA A2f    |Tgfg dBG|Tgfg dBG|FGA Ddc|BGG G2f|
     Tgfg dBG| gfg dBG|cac BgB|aAA A2c    | BAG cBA| dcB edc|Bcd DEF|G3  G2|]
